client/src/assets/community/video-bg.svg

<svg xmlns="http://www.w3.org/2000/svg" fill="none" viewBox="0 0 464 412"><circle cx="205.617" cy="205.617" r="193.617" fill="#fff"/><circle cx="391.261" cy="124.597" r="36.986" fill="#E1F5E5" stroke="#F2F2F5" stroke-width="2" transform="rotate(8.739 391.261 124.597)"/><path fill="#007936" d="M408.439 115.565a1.934 1.934 0 0 1-.416 2.703l-21.746 15.952a4 4 0 0 1-5.592-.859l-5.41-7.375a1.934 1.934 0 0 1 3.118-2.29l3.126 4.25a4 4 0 0 0 5.587.856l18.631-13.652a1.934 1.934 0 0 1 2.702.415"/><path stroke="#007936" stroke-linecap="round" stroke-width="4" d="m438.607 111.76 18.68 2.084m-25.318-13.772 15.953-9.941m-23.899-1.799 5.297-18.035"/><path fill="#E1F5E5" stroke="#F2F2F5" stroke-width="2" d="M350.982 380.623c-2.193 14.264-15.921 24.045-30.719 21.77-14.798-2.274-24.955-15.726-22.762-29.991s15.921-24.045 30.719-21.77c14.798 2.274 24.955 15.726 22.762 29.991Z"/><path fill="#007936" d="M334.371 371.276c.458-.458.458-1.221 0-1.656l-2.749-2.749c-.434-.458-1.198-.458-1.656 0l-2.162 2.15 4.406 4.405m-18.644 9.845v4.405h4.405l12.993-13.005-4.405-4.405z"/></svg>

<svg width="464" height="412" viewBox="0 0 464 412" fill="none" xmlns="http://www.w3.org/2000/svg">
<circle cx="205.617" cy="205.617" r="193.617" fill="white"/>
<circle cx="391.261" cy="124.597" r="36.9859" transform="rotate(8.73863 391.261 124.597)" fill="#E1F5E5" stroke="#F2F2F5" stroke-width="2"/>
<path d="M408.439 115.565C409.07 116.427 408.884 117.637 408.023 118.268L386.277 134.22C384.495 135.527 381.992 135.142 380.685 133.361L375.275 125.986C374.644 125.124 374.83 123.914 375.691 123.282C376.552 122.651 377.761 122.836 378.393 123.696L381.519 127.946C382.826 129.723 385.326 130.107 387.106 128.802L405.737 115.15C406.598 114.519 407.807 114.705 408.439 115.565Z" fill="#007936"/>
<path d="M438.607 111.76L457.287 113.844" stroke="#007936" stroke-width="4" stroke-linecap="round"/>
<path d="M431.969 100.072L447.922 90.131" stroke="#007936" stroke-width="4" stroke-linecap="round"/>
<path d="M424.023 88.332L429.32 70.2973" stroke="#007936" stroke-width="4" stroke-linecap="round"/>
<path d="M350.982 380.623C348.789 394.887 335.061 404.668 320.263 402.393C305.465 400.119 295.308 386.667 297.501 372.402C299.693 358.138 313.422 348.357 328.22 350.632C343.018 352.906 353.175 366.358 350.982 380.623Z" fill="#E1F5E5" stroke="#F2F2F5" stroke-width="2"/>
<path d="M334.371 371.276C334.829 370.818 334.829 370.055 334.371 369.62L331.622 366.871C331.188 366.413 330.424 366.413 329.966 366.871L327.804 369.021L332.21 373.426M313.566 383.271V387.676H317.971L330.964 374.671L326.559 370.266L313.566 383.271Z" fill="#007936"/>
</svg>
